public/avatar/shoe/146.svg

<svg xmlns:xlink="http://www.w3.org/1999/xlink" height="38.3" width="36.05" xmlns="http://www.w3.org/2000/svg"><use height="23.45" transform="translate(12 5.5)" width="20" xlink:href="#a"/><defs><g id="a" fill-rule="evenodd"><path d="M1.35-8.55q3.45 3.5 5.8 3.2.75 2.9-.05 7.25 1.35 1.6.8 3.45l.3 1.75Q2.4 15-4.85 14q-2.25-.3-4.4-1.4l-1.7-1.1-.55-2.25-.3-.65q.05-3.25 2.6-5.55l2.65-1.75.25-1.05-.8-4.95Q-5.7-9.25-2-9.35q1.85-.05 3.35.8" fill="#1c140c" transform="translate(11.8 9.35)"/><path d="m6.7 5.45.35 1.5q-5.3 6.4-11.6 5.95l-3.8-.9-1.4-.75-.5-2.2q5.7 1.1 16.95-3.6" fill="#fd4a38" transform="translate(11.8 9.35)"/><path d="M2.35 9.75Q-3.6 13-10.6 9.25l.2-.35 1.25.7 3.5.8Q.3 10.75 6.6 5.25l.3.45Q5.3 8.1 2.35 9.75" fill="#03257c" transform="translate(11.8 9.35)"/><path d="M2.1-6.8q1.95 2 3.8 2 .5 1.05.2 7.05 1.25.95.6 3.2-6.05 6.2-12.4 5.4-1.95-.15-3.75-1.1l-1.35-.85q.1-3.05 1.95-4.8l2.45-1.85 1.25-1.7-1.1-5.5Q-3.55-9-.4-8.3q1.5.35 2.5 1.5" fill="#f8f8fc" transform="translate(11.8 9.35)"/><path d="M-11 8.9q.15-2.15 1-3.45l3.15-.5q3.55.55 5.5 5.75-5.2 1.45-9.65-1.8M1.9.1q2.35.85 4.2 2.1 1.15 1.1.7 3.25Q4.15 8.3 1.1 9.5.25 4.25-.7 3.3q-.7-.65-5.35-1.3L-5.2.3q2.45-1.9 7.1-.2" fill="#3494ff" transform="translate(11.8 9.35)"/><path d="m4.3-5.3.5.1.05 8.95-.8 1.45.25-10.5" fill="#3b3b3b" transform="translate(11.8 9.35)"/><path d="M5.1 5.5Q3.65 8.1 2.05 7.25.5 6.25 1.9 3.7 3.45 1.05 5 2q1.65.9.1 3.5" fill="#4c0805" transform="translate(11.8 9.35)"/><path d="M5.05 5.35q-1.4 2.4-2.7 1.7-1.35-.75 0-3.2 1.35-2.5 2.7-1.7t0 3.2" fill="#fd4a38" transform="translate(11.8 9.35)"/><path d="m-2.8-1-2.25.7L-6-4.85l1.85-1.95q1.4-1.65 3.5-1.1 1.05.25 1.75.85-5.25.95-1.8 4.4Q1-1 3.75.55.15-1.35-2.8-1" fill="#e3e3e5" transform="translate(11.8 9.35)"/><path d="M-3.25 4.15q-.55.5.05 2.3l.8 1.65q-2.2-3.25-4.95-3.25l-2.4.6Q-8.95 4-7.5 3l1.35-.75q6.6-.5 5.6 2.3-1.85-.95-2.7-.4" fill="#cdcdcf" transform="translate(11.8 9.35)"/><path d="m-4.9.5 1.85-.95q2.5-.5 5.95 1.4-6-1.1-3.45 2.35-1.7-1.4-4.95-1.4.9-1.05.6-1.4m-.5 5q-3.8-.3-.5 2.5 1.65 1.35 3.6 2.5-2.55.55-5.55-.6l-2.6-1.25q-.1-.75.95-2l1.05-1.15q.55-.6 1.8-.35l1.25.35" fill="#173a87" transform="translate(11.8 9.35)"/><path d="M-10.3 10.05q3.85 2.5 8.05 1.7L2.4 11q-3.8 3.15-8.35 2l-3.75-1.7-.6-1.25" fill="#c73a2c" transform="translate(11.8 9.35)"/><path d="M3.05 7.05Q1.9 7.5 1.7 5.45q.4-1.75 1.5-2.8L4.25 2l-1.2 2.9q-.35 1.3 0 2.15" fill="#cc251d" transform="translate(11.8 9.35)"/><path d="M-2-2.1q-1.55-.15-2.6-1.4l-.75-1.25 2.8 1.55q1.7.15 4 0Q.45-1.85-2-2.1" fill="#474747" transform="translate(11.8 9.35)"/><path d="m4.05-5.45-.1.15L2-3.75l.85-2.15 1.2.45" fill="#adadad" transform="translate(11.8 9.35)"/></g></defs></svg>

<?xml version="1.0" encoding="UTF-8" standalone="no"?>
<svg xmlns:xlink="http://www.w3.org/1999/xlink" height="38.3px" width="36.05px" xmlns="http://www.w3.org/2000/svg">
  <g transform="matrix(1.0, 0.0, 0.0, 1.0, 23.8, 14.85)">
    <use height="23.45" transform="matrix(1.0, 0.0, 0.0, 1.0, -11.8, -9.35)" width="20.0" xlink:href="#shape0"/>
  </g>
  <defs>
    <g id="shape0" transform="matrix(1.0, 0.0, 0.0, 1.0, 11.8, 9.35)">
      <path d="M1.35 -8.55 Q4.8 -5.05 7.15 -5.35 7.9 -2.45 7.1 1.9 8.45 3.5 7.9 5.35 L8.2 7.1 Q2.4 15.0 -4.85 14.0 -7.1 13.7 -9.25 12.6 L-10.95 11.5 -11.5 9.25 -11.8 8.6 Q-11.75 5.35 -9.2 3.05 L-6.55 1.3 -6.3 0.25 -7.1 -4.7 Q-5.7 -9.25 -2.0 -9.35 -0.15 -9.4 1.35 -8.55" fill="#1c140c" fill-rule="evenodd" stroke="none"/>
      <path d="M6.7 5.45 L7.05 6.95 Q1.75 13.35 -4.55 12.9 L-8.35 12.0 -9.75 11.25 -10.25 9.05 Q-4.55 10.15 6.7 5.45" fill="#fd4a38" fill-rule="evenodd" stroke="none"/>
      <path d="M2.35 9.75 Q-3.6 13.0 -10.6 9.25 L-10.4 8.9 -9.15 9.6 -5.65 10.4 Q0.3 10.75 6.6 5.25 L6.9 5.7 Q5.3 8.1 2.35 9.75" fill="#03257c" fill-rule="evenodd" stroke="none"/>
      <path d="M2.1 -6.8 Q4.05 -4.8 5.9 -4.8 6.4 -3.75 6.1 2.25 7.35 3.2 6.7 5.45 0.65 11.65 -5.7 10.85 -7.65 10.7 -9.45 9.75 L-10.8 8.9 Q-10.7 5.85 -8.85 4.1 L-6.4 2.25 -5.15 0.55 -6.25 -4.95 Q-3.55 -9.0 -0.4 -8.3 1.1 -7.95 2.1 -6.8" fill="#f8f8fc" fill-rule="evenodd" stroke="none"/>
      <path d="M-11.0 8.9 Q-10.85 6.75 -10.0 5.45 L-6.85 4.95 Q-3.3 5.5 -1.35 10.7 -6.55 12.15 -11.0 8.9" fill="#3494ff" fill-rule="evenodd" stroke="none"/>
      <path d="M1.9 0.1 Q4.25 0.95 6.1 2.2 7.25 3.3 6.8 5.45 4.15 8.3 1.1 9.5 0.25 4.25 -0.7 3.3 -1.4 2.65 -6.05 2.0 L-5.2 0.3 Q-2.75 -1.6 1.9 0.1" fill="#3494ff" fill-rule="evenodd" stroke="none"/>
      <path d="M4.3 -5.3 L4.8 -5.2 4.85 3.75 4.05 5.2 4.3 -5.3" fill="#3b3b3b" fill-rule="evenodd" stroke="none"/>
      <path d="M5.1 5.5 Q3.65 8.1 2.05 7.25 0.5 6.25 1.9 3.7 3.45 1.05 5.0 2.0 6.65 2.9 5.1 5.5" fill="#4c0805" fill-rule="evenodd" stroke="none"/>
      <path d="M5.05 5.35 Q3.65 7.75 2.35 7.05 1.0 6.3 2.35 3.85 3.7 1.35 5.05 2.15 6.4 2.95 5.05 5.35" fill="#fd4a38" fill-rule="evenodd" stroke="none"/>
      <path d="M-2.8 -1.0 L-5.05 -0.3 -6.0 -4.85 -4.15 -6.8 Q-2.75 -8.45 -0.65 -7.9 0.4 -7.65 1.1 -7.05 -4.15 -6.1 -0.7 -2.65 1.0 -1.0 3.75 0.55 0.15 -1.35 -2.8 -1.0" fill="#e3e3e5" fill-rule="evenodd" stroke="none"/>
      <path d="M-3.25 4.15 Q-3.8 4.65 -3.2 6.45 L-2.4 8.1 Q-4.6 4.85 -7.35 4.85 L-9.75 5.45 Q-8.95 4.0 -7.5 3.0 L-6.15 2.25 Q0.45 1.75 -0.55 4.55 -2.4 3.6 -3.25 4.15" fill="#cdcdcf" fill-rule="evenodd" stroke="none"/>
      <path d="M-4.9 0.5 L-3.05 -0.45 Q-0.55 -0.95 2.9 0.95 -3.1 -0.15 -0.55 3.3 -2.25 1.9 -5.5 1.9 -4.6 0.85 -4.9 0.5" fill="#173a87" fill-rule="evenodd" stroke="none"/>
      <path d="M-5.4 5.5 Q-9.2 5.2 -5.9 8.0 -4.25 9.35 -2.3 10.5 -4.85 11.05 -7.85 9.9 L-10.45 8.65 Q-10.55 7.9 -9.5 6.65 L-8.45 5.5 Q-7.9 4.9 -6.65 5.15 L-5.4 5.5" fill="#173a87" fill-rule="evenodd" stroke="none"/>
      <path d="M-10.3 10.05 Q-6.45 12.55 -2.25 11.75 L2.4 11.0 Q-1.4 14.15 -5.95 13.0 L-9.7 11.3 -10.3 10.05" fill="#c73a2c" fill-rule="evenodd" stroke="none"/>
      <path d="M3.05 7.05 Q1.9 7.5 1.7 5.45 2.1 3.7 3.2 2.65 L4.25 2.0 3.05 4.9 Q2.7 6.2 3.05 7.05" fill="#cc251d" fill-rule="evenodd" stroke="none"/>
      <path d="M-2.0 -2.1 Q-3.55 -2.25 -4.6 -3.5 L-5.35 -4.75 -2.55 -3.2 Q-0.85 -3.05 1.45 -3.2 0.45 -1.85 -2.0 -2.1" fill="#474747" fill-rule="evenodd" stroke="none"/>
      <path d="M4.05 -5.45 L3.95 -5.3 2.0 -3.75 2.85 -5.9 4.05 -5.45" fill="#adadad" fill-rule="evenodd" stroke="none"/>
    </g>
  </defs>
</svg>
